assets/1. 1-F/Cloud with lightning/Color/Cloud.With.Lightning-color.svg

<svg width="100%" height="100%" viewBox="0 0 32 32" fill="none" xmlns="http://www.w3.org/2000/svg">
<path d="M12.9876 12.461C15.3067 12.461 17.1868 10.5809 17.1868 8.26177C17.1868 5.94261 15.3067 4.06259 12.9876 4.06259C10.6684 4.06259 8.78839 5.94261 8.78839 8.26177C8.78839 10.5809 10.6684 12.461 12.9876 12.461Z" fill="url(#paint0_radial_18_15216)"/>
<path d="M12.9876 12.461C15.3067 12.461 17.1868 10.5809 17.1868 8.26177C17.1868 5.94261 15.3067 4.06259 12.9876 4.06259C10.6684 4.06259 8.78839 5.94261 8.78839 8.26177C8.78839 10.5809 10.6684 12.461 12.9876 12.461Z" fill="url(#paint1_radial_18_15216)"/>
<g filter="url(#filter0_i_18_15216)">
<path d="M30 11.0483C30 15.9736 26.011 19.9663 21.0904 19.9663H8.81868C5.20801 19.9663 2.28125 16.9256 2.28125 13.5256C2.28125 10.1255 5.11507 7.32914 8.72574 7.32914C9.45141 7.32914 10.4203 7.51521 11.3125 7.85938C12.2047 8.20354 12.8697 7.48946 13.187 6.85453C14.5593 4.10881 17.5635 2 21.125 2C26.0456 2 30 6.12307 30 11.0483Z" fill="#3124C5"/>
<path d="M30 11.0483C30 15.9736 26.011 19.9663 21.0904 19.9663H8.81868C5.20801 19.9663 2.28125 16.9256 2.28125 13.5256C2.28125 10.1255 5.11507 7.32914 8.72574 7.32914C9.45141 7.32914 10.4203 7.51521 11.3125 7.85938C12.2047 8.20354 12.8697 7.48946 13.187 6.85453C14.5593 4.10881 17.5635 2 21.125 2C26.0456 2 30 6.12307 30 11.0483Z" fill="url(#paint2_radial_18_15216)"/>
<path d="M30 11.0483C30 15.9736 26.011 19.9663 21.0904 19.9663H8.81868C5.20801 19.9663 2.28125 16.9256 2.28125 13.5256C2.28125 10.1255 5.11507 7.32914 8.72574 7.32914C9.45141 7.32914 10.4203 7.51521 11.3125 7.85938C12.2047 8.20354 12.8697 7.48946 13.187 6.85453C14.5593 4.10881 17.5635 2 21.125 2C26.0456 2 30 6.12307 30 11.0483Z" fill="url(#paint3_radial_18_15216)"/>
</g>
<path d="M30 11.0483C30 15.9736 26.011 19.9663 21.0904 19.9663H8.81868C5.20801 19.9663 2.28125 16.9256 2.28125 13.5256C2.28125 10.1255 5.11507 7.32914 8.72574 7.32914C9.45141 7.32914 10.4203 7.51521 11.3125 7.85938C12.2047 8.20354 12.8697 7.48946 13.187 6.85453C14.5593 4.10881 17.5635 2 21.125 2C26.0456 2 30 6.12307 30 11.0483Z" fill="url(#paint4_radial_18_15216)"/>
<path d="M30 11.0483C30 15.9736 26.011 19.9663 21.0904 19.9663H8.81868C5.20801 19.9663 2.28125 16.9256 2.28125 13.5256C2.28125 10.1255 5.11507 7.32914 8.72574 7.32914C9.45141 7.32914 10.4203 7.51521 11.3125 7.85938C12.2047 8.20354 12.8697 7.48946 13.187 6.85453C14.5593 4.10881 17.5635 2 21.125 2C26.0456 2 30 6.12307 30 11.0483Z" fill="url(#paint5_radial_18_15216)"/>
<g filter="url(#filter1_f_18_15216)">
<path d="M12.8574 8.93408C13.4635 9.63838 14.6853 11.6366 14.7247 13.9952" stroke="url(#paint6_linear_18_15216)" stroke-width="0.5" stroke-linecap="round"/>
</g>
<g filter="url(#filter2_i_18_15216)">
<path d="M16.5902 13.9661L12.1975 21.2514C12.0971 21.418 12.2171 21.6304 12.4117 21.6304L14.6338 21.6304C14.7995 21.6304 14.9338 21.7647 14.9338 21.9304V26.5815H14.6696V27.8419H15.0745C15.1258 27.8456 15.1791 27.8234 15.2118 27.7698L20.0979 19.7646C20.1589 19.6647 20.0869 19.5365 19.9698 19.5365H17.4343C17.2962 19.5365 17.1843 19.4246 17.1843 19.2865V13.52C17.1843 13.4311 17.1158 13.3752 17.0433 13.3701L16.5902 13.3698V13.9661Z" fill="url(#paint7_linear_18_15216)"/>
</g>
<g filter="url(#filter3_i_18_15216)">
<path d="M16.4655 13.4426L11.7572 21.2513C11.6568 21.418 11.7768 21.6304 11.9713 21.6304L14.1935 21.6304C14.3592 21.6304 14.4935 21.7647 14.4935 21.9304V27.6917C14.4935 27.8432 14.6926 27.8992 14.7715 27.7698L19.6575 19.7646C19.7186 19.6647 19.6466 19.5365 19.5295 19.5365H16.9939C16.8559 19.5365 16.7439 19.4246 16.7439 19.2865V13.52C16.7439 13.368 16.544 13.3124 16.4655 13.4426Z" fill="url(#paint8_linear_18_15216)"/>
</g>
<path d="M16.4655 13.4426L11.7572 21.2513C11.6568 21.418 11.7768 21.6304 11.9713 21.6304L14.1935 21.6304C14.3592 21.6304 14.4935 21.7647 14.4935 21.9304V27.6917C14.4935 27.8432 14.6926 27.8992 14.7715 27.7698L19.6575 19.7646C19.7186 19.6647 19.6466 19.5365 19.5295 19.5365H16.9939C16.8559 19.5365 16.7439 19.4246 16.7439 19.2865V13.52C16.7439 13.368 16.544 13.3124 16.4655 13.4426Z" fill="url(#paint9_linear_18_15216)"/>
<path d="M16.4655 13.4426L11.7572 21.2513C11.6568 21.418 11.7768 21.6304 11.9713 21.6304L14.1935 21.6304C14.3592 21.6304 14.4935 21.7647 14.4935 21.9304V27.6917C14.4935 27.8432 14.6926 27.8992 14.7715 27.7698L19.6575 19.7646C19.7186 19.6647 19.6466 19.5365 19.5295 19.5365H16.9939C16.8559 19.5365 16.7439 19.4246 16.7439 19.2865V13.52C16.7439 13.368 16.544 13.3124 16.4655 13.4426Z" fill="url(#paint10_radial_18_15216)"/>
<defs>
<filter id="filter0_i_18_15216" x="2.28125" y="0" width="28.7188" height="19.9663" filterUnits="userSpaceOnUse" color-interpolation-filters="sRGB">
<feFlood flood-opacity="0" result="BackgroundImageFix"/>
<feBlend mode="normal" in="SourceGraphic" in2="BackgroundImageFix" result="shape"/>
<feColorMatrix in="SourceAlpha" type="matrix" values="0 0 0 0 0 0 0 0 0 0 0 0 0 0 0 0 0 0 127 0" result="hardAlpha"/>
<feOffset dx="1" dy="-2"/>
<feGaussianBlur stdDeviation="1.5"/>
<feComposite in2="hardAlpha" operator="arithmetic" k2="-1" k3="1"/>
<feColorMatrix type="matrix" values="0 0 0 0 0.207843 0 0 0 0 0.12549 0 0 0 0 0.596078 0 0 0 1 0"/>
<feBlend mode="normal" in2="shape" result="effect1_innerShadow_18_15216"/>
</filter>
<filter id="filter1_f_18_15216" x="11.6074" y="7.68408" width="4.36725" height="7.56114" filterUnits="userSpaceOnUse" color-interpolation-filters="sRGB">
<feFlood flood-opacity="0" result="BackgroundImageFix"/>
<feBlend mode="normal" in="SourceGraphic" in2="BackgroundImageFix" result="shape"/>
<feGaussianBlur stdDeviation="0.5" result="effect1_foregroundBlur_18_15216"/>
</filter>
<filter id="filter2_i_18_15216" x="12.0613" y="13.3698" width="8.0588" height="14.4726" filterUnits="userSpaceOnUse" color-interpolation-filters="sRGB">
<feFlood flood-opacity="0" result="BackgroundImageFix"/>
<feBlend mode="normal" in="SourceGraphic" in2="BackgroundImageFix" result="shape"/>
<feColorMatrix in="SourceAlpha" type="matrix" values="0 0 0 0 0 0 0 0 0 0 0 0 0 0 0 0 0 0 127 0" result="hardAlpha"/>
<feOffset dx="-0.1"/>
<feGaussianBlur stdDeviation="0.15"/>
<feComposite in2="hardAlpha" operator="arithmetic" k2="-1" k3="1"/>
<feColorMatrix type="matrix" values="0 0 0 0 0.890196 0 0 0 0 0.478431 0 0 0 0 0.431373 0 0 0 1 0"/>
<feBlend mode="normal" in2="shape" result="effect1_innerShadow_18_15216"/>
</filter>
<filter id="filter3_i_18_15216" x="11.7209" y="13.3698" width="7.9588" height="14.4722" filterUnits="userSpaceOnUse" color-interpolation-filters="sRGB">
<feFlood flood-opacity="0" result="BackgroundImageFix"/>
<feBlend mode="normal" in="SourceGraphic" in2="BackgroundImageFix" result="shape"/>
<feColorMatrix in="SourceAlpha" type="matrix" values="0 0 0 0 0 0 0 0 0 0 0 0 0 0 0 0 0 0 127 0" result="hardAlpha"/>
<feOffset/>
<feGaussianBlur stdDeviation="0.25"/>
<feComposite in2="hardAlpha" operator="arithmetic" k2="-1" k3="1"/>
<feColorMatrix type="matrix" values="0 0 0 0 0.741176 0 0 0 0 0.203922 0 0 0 0 0.345098 0 0 0 1 0"/>
<feBlend mode="normal" in2="shape" result="effect1_innerShadow_18_15216"/>
</filter>
<radialGradient id="paint0_radial_18_15216" cx="0" cy="0" r="1" gradientUnits="userSpaceOnUse" gradientTransform="translate(14.2882 5.61807) rotate(153.208) scale(4.20461 3.59222)">
<stop stop-color="#5347D7"/>
<stop offset="1" stop-color="#3831B0"/>
</radialGradient>
<radialGradient id="paint1_radial_18_15216" cx="0" cy="0" r="1" gradientUnits="userSpaceOnUse" gradientTransform="translate(13.7559 8.0916) rotate(-58.1906) scale(3.56509 3.46861)">
<stop offset="0.185678" stop-color="#281EA4"/>
<stop offset="1" stop-color="#281EA4" stop-opacity="0"/>
</radialGradient>
<radialGradient id="paint2_radial_18_15216" cx="0" cy="0" r="1" gradientUnits="userSpaceOnUse" gradientTransform="translate(15.0206 18.0156) rotate(111.609) scale(10.3526 6.47339)">
<stop offset="0.362507" stop-color="#381B90"/>
<stop offset="1" stop-color="#381B90" stop-opacity="0"/>
</radialGradient>
<radialGradient id="paint3_radial_18_15216" cx="0" cy="0" r="1" gradientUnits="userSpaceOnUse" gradientTransform="translate(10.6198 10.9832) rotate(137.466) scale(4.74976 4.48072)">
<stop stop-color="#534ADD"/>
<stop offset="1" stop-color="#574ADF" stop-opacity="0"/>
</radialGradient>
<radialGradient id="paint4_radial_18_15216" cx="0" cy="0" r="1" gradientUnits="userSpaceOnUse" gradientTransform="translate(24.7278 7.22033) rotate(142.503) scale(10.8234 11.8782)">
<stop offset="0.141507" stop-color="#6051FF"/>
<stop offset="1" stop-color="#6051FF" stop-opacity="0"/>
</radialGradient>
<radialGradient id="paint5_radial_18_15216" cx="0" cy="0" r="1" gradientUnits="userSpaceOnUse" gradientTransform="translate(20.935 10.3925) rotate(170.656) scale(18.9046 16.1511)">
<stop offset="0.799468" stop-color="#35209A" stop-opacity="0"/>
<stop offset="1" stop-color="#35209A"/>
</radialGradient>
<linearGradient id="paint6_linear_18_15216" x1="13.1891" y1="10.1625" x2="15.0563" y2="15.7642" gradientUnits="userSpaceOnUse">
<stop stop-color="#554BD3"/>
<stop offset="1" stop-color="#554BD3" stop-opacity="0"/>
</linearGradient>
<linearGradient id="paint7_linear_18_15216" x1="17.4964" y1="17.5756" x2="17.4964" y2="24.6866" gradientUnits="userSpaceOnUse">
<stop stop-color="#EA9B4C"/>
<stop offset="1" stop-color="#EB5C74"/>
</linearGradient>
<linearGradient id="paint8_linear_18_15216" x1="15.7003" y1="14.8281" x2="15.7003" y2="26.2344" gradientUnits="userSpaceOnUse">
<stop stop-color="#F39445"/>
<stop offset="1" stop-color="#F14B49"/>
</linearGradient>
<linearGradient id="paint9_linear_18_15216" x1="15.7003" y1="13.3698" x2="15.7003" y2="19.3281" gradientUnits="userSpaceOnUse">
<stop stop-color="#DF9844"/>
<stop offset="1" stop-color="#DF9844" stop-opacity="0"/>
</linearGradient>
<radialGradient id="paint10_radial_18_15216" cx="0" cy="0" r="1" gradientUnits="userSpaceOnUse" gradientTransform="translate(16.7919 16.1849) rotate(90) scale(3.47652 0.758514)">
<stop stop-color="#FE9052"/>
<stop offset="1" stop-color="#FE9052" stop-opacity="0"/>
</radialGradient>
</defs>
</svg>

<svg width="100%" height="100%" viewBox="0 0 32 32" xmlns="http://www.w3.org/2000/svg"><path fill="url(#a)" d="M12.988 12.461a4.2 4.2 0 1 0 0-8.399 4.2 4.2 0 0 0 0 8.399"/><path fill="url(#b)" d="M12.988 12.461a4.2 4.2 0 1 0 0-8.399 4.2 4.2 0 0 0 0 8.399"/><g filter="url(#c)"><path fill="#3124C5" d="M30 11.048c0 4.926-3.989 8.918-8.91 8.918H8.82c-3.611 0-6.538-3.04-6.538-6.44s2.834-6.197 6.445-6.197c.725 0 1.694.186 2.586.53.893.345 1.558-.37 1.875-1.004C14.559 4.109 17.564 2 21.125 2 26.045 2 30 6.123 30 11.048"/><path fill="url(#d)" d="M30 11.048c0 4.926-3.989 8.918-8.91 8.918H8.82c-3.611 0-6.538-3.04-6.538-6.44s2.834-6.197 6.445-6.197c.725 0 1.694.186 2.586.53.893.345 1.558-.37 1.875-1.004C14.559 4.109 17.564 2 21.125 2 26.045 2 30 6.123 30 11.048"/><path fill="url(#e)" d="M30 11.048c0 4.926-3.989 8.918-8.91 8.918H8.82c-3.611 0-6.538-3.04-6.538-6.44s2.834-6.197 6.445-6.197c.725 0 1.694.186 2.586.53.893.345 1.558-.37 1.875-1.004C14.559 4.109 17.564 2 21.125 2 26.045 2 30 6.123 30 11.048"/></g><path fill="url(#f)" d="M30 11.048c0 4.926-3.989 8.918-8.91 8.918H8.82c-3.611 0-6.538-3.04-6.538-6.44s2.834-6.197 6.445-6.197c.725 0 1.694.186 2.586.53.893.345 1.558-.37 1.875-1.004C14.559 4.109 17.564 2 21.125 2 26.045 2 30 6.123 30 11.048"/><path fill="url(#g)" d="M30 11.048c0 4.926-3.989 8.918-8.91 8.918H8.82c-3.611 0-6.538-3.04-6.538-6.44s2.834-6.197 6.445-6.197c.725 0 1.694.186 2.586.53.893.345 1.558-.37 1.875-1.004C14.559 4.109 17.564 2 21.125 2 26.045 2 30 6.123 30 11.048"/><g filter="url(#h)"><path stroke="url(#i)" stroke-linecap="round" stroke-width=".5" d="M12.857 8.934c.607.704 1.828 2.703 1.868 5.061"/></g><g filter="url(#j)"><path fill="url(#k)" d="m16.59 13.966-4.392 7.285a.25.25 0 0 0 .214.38h2.222a.3.3 0 0 1 .3.3v4.65h-.264v1.26h.405a.15.15 0 0 0 .137-.071l4.886-8.005a.15.15 0 0 0-.128-.229h-2.536a.25.25 0 0 1-.25-.25V13.52a.15.15 0 0 0-.14-.15h-.454z"/></g><g filter="url(#l)"><path fill="url(#m)" d="m16.466 13.443-4.709 7.808c-.1.167.02.38.214.38h2.223a.3.3 0 0 1 .3.3v5.76c0 .152.199.208.277.079l4.886-8.005a.15.15 0 0 0-.128-.229h-2.535a.25.25 0 0 1-.25-.25V13.52c0-.152-.2-.208-.279-.077"/></g><path fill="url(#n)" d="m16.466 13.443-4.709 7.808c-.1.167.02.38.214.38h2.223a.3.3 0 0 1 .3.3v5.76c0 .152.199.208.277.079l4.886-8.005a.15.15 0 0 0-.128-.229h-2.535a.25.25 0 0 1-.25-.25V13.52c0-.152-.2-.208-.279-.077"/><path fill="url(#o)" d="m16.466 13.443-4.709 7.808c-.1.167.02.38.214.38h2.223a.3.3 0 0 1 .3.3v5.76c0 .152.199.208.277.079l4.886-8.005a.15.15 0 0 0-.128-.229h-2.535a.25.25 0 0 1-.25-.25V13.52c0-.152-.2-.208-.279-.077"/><defs><radialGradient id="a" cx="0" cy="0" r="1" gradientTransform="rotate(153.208 6.475 4.51)scale(4.20461 3.59222)" gradientUnits="userSpaceOnUse"><stop stop-color="#5347D7"/><stop offset="1" stop-color="#3831B0"/></radialGradient><radialGradient id="b" cx="0" cy="0" r="1" gradientTransform="rotate(-58.191 14.148 -8.314)scale(3.56509 3.46861)" gradientUnits="userSpaceOnUse"><stop offset=".186" stop-color="#281EA4"/><stop offset="1" stop-color="#281EA4" stop-opacity="0"/></radialGradient><radialGradient id="d" cx="0" cy="0" r="1" gradientTransform="rotate(111.609 1.39 14.11)scale(10.3526 6.47339)" gradientUnits="userSpaceOnUse"><stop offset=".363" stop-color="#381B90"/><stop offset="1" stop-color="#381B90" stop-opacity="0"/></radialGradient><radialGradient id="e" cx="0" cy="0" r="1" gradientTransform="rotate(137.466 3.172 7.558)scale(4.74976 4.48072)" gradientUnits="userSpaceOnUse"><stop stop-color="#534ADD"/><stop offset="1" stop-color="#574ADF" stop-opacity="0"/></radialGradient><radialGradient id="f" cx="0" cy="0" r="1" gradientTransform="matrix(-8.58713 6.58842 -7.2305 -9.42399 24.728 7.22)" gradientUnits="userSpaceOnUse"><stop offset=".142" stop-color="#6051FF"/><stop offset="1" stop-color="#6051FF" stop-opacity="0"/></radialGradient><radialGradient id="g" cx="0" cy="0" r="1" gradientTransform="rotate(170.656 10.043 6.052)scale(18.9046 16.1511)" gradientUnits="userSpaceOnUse"><stop offset=".799" stop-color="#35209A" stop-opacity="0"/><stop offset="1" stop-color="#35209A"/></radialGradient><radialGradient id="o" cx="0" cy="0" r="1" gradientTransform="matrix(0 3.47652 -.75851 0 16.792 16.185)" gradientUnits="userSpaceOnUse"><stop stop-color="#FE9052"/><stop offset="1" stop-color="#FE9052" stop-opacity="0"/></radialGradient><linearGradient id="i" x1="13.189" x2="15.056" y1="10.162" y2="15.764" gradientUnits="userSpaceOnUse"><stop stop-color="#554BD3"/><stop offset="1" stop-color="#554BD3" stop-opacity="0"/></linearGradient><linearGradient id="k" x1="17.496" x2="17.496" y1="17.576" y2="24.687" gradientUnits="userSpaceOnUse"><stop stop-color="#EA9B4C"/><stop offset="1" stop-color="#EB5C74"/></linearGradient><linearGradient id="m" x1="15.7" x2="15.7" y1="14.828" y2="26.234" gradientUnits="userSpaceOnUse"><stop stop-color="#F39445"/><stop offset="1" stop-color="#F14B49"/></linearGradient><linearGradient id="n" x1="15.7" x2="15.7" y1="13.37" y2="19.328" gradientUnits="userSpaceOnUse"><stop stop-color="#DF9844"/><stop offset="1" stop-color="#DF9844" stop-opacity="0"/></linearGradient><filter id="c" width="28.719" height="19.966" x="2.281" y="0" color-interpolation-filters="sRGB" filterUnits="userSpaceOnUse"><feFlood flood-opacity="0" result="BackgroundImageFix"/><feBlend in="SourceGraphic" in2="BackgroundImageFix" result="shape"/><feColorMatrix in="SourceAlpha" result="hardAlpha" values="0 0 0 0 0 0 0 0 0 0 0 0 0 0 0 0 0 0 127 0"/><feOffset dx="1" dy="-2"/><feGaussianBlur stdDeviation="1.5"/><feComposite in2="hardAlpha" k2="-1" k3="1" operator="arithmetic"/><feColorMatrix values="0 0 0 0 0.207843 0 0 0 0 0.12549 0 0 0 0 0.596078 0 0 0 1 0"/><feBlend in2="shape" result="effect1_innerShadow_18_15216"/></filter><filter id="h" width="4.367" height="7.561" x="11.607" y="7.684" color-interpolation-filters="sRGB" filterUnits="userSpaceOnUse"><feFlood flood-opacity="0" result="BackgroundImageFix"/><feBlend in="SourceGraphic" in2="BackgroundImageFix" result="shape"/><feGaussianBlur result="effect1_foregroundBlur_18_15216" stdDeviation=".5"/></filter><filter id="j" width="8.059" height="14.473" x="12.061" y="13.37" color-interpolation-filters="sRGB" filterUnits="userSpaceOnUse"><feFlood flood-opacity="0" result="BackgroundImageFix"/><feBlend in="SourceGraphic" in2="BackgroundImageFix" result="shape"/><feColorMatrix in="SourceAlpha" result="hardAlpha" values="0 0 0 0 0 0 0 0 0 0 0 0 0 0 0 0 0 0 127 0"/><feOffset dx="-.1"/><feGaussianBlur stdDeviation=".15"/><feComposite in2="hardAlpha" k2="-1" k3="1" operator="arithmetic"/><feColorMatrix values="0 0 0 0 0.890196 0 0 0 0 0.478431 0 0 0 0 0.431373 0 0 0 1 0"/><feBlend in2="shape" result="effect1_innerShadow_18_15216"/></filter><filter id="l" width="7.959" height="14.472" x="11.721" y="13.37" color-interpolation-filters="sRGB" filterUnits="userSpaceOnUse"><feFlood flood-opacity="0" result="BackgroundImageFix"/><feBlend in="SourceGraphic" in2="BackgroundImageFix" result="shape"/><feColorMatrix in="SourceAlpha" result="hardAlpha" values="0 0 0 0 0 0 0 0 0 0 0 0 0 0 0 0 0 0 127 0"/><feOffset/><feGaussianBlur stdDeviation=".25"/><feComposite in2="hardAlpha" k2="-1" k3="1" operator="arithmetic"/><feColorMatrix values="0 0 0 0 0.741176 0 0 0 0 0.203922 0 0 0 0 0.345098 0 0 0 1 0"/><feBlend in2="shape" result="effect1_innerShadow_18_15216"/></filter></defs></svg>
